X:440
T: Echo, du der Felsen Leben (5-36), S. 61
N: P0710
O: Lothringen
S: MERKELBACH-PINCK, Angelika: Verklingende Weisen, Bd 5, Kassel 1962]
N: Echolied: nahezu jede Zeile (2. Hlfte) wird wiederholt
R: geistliches, religises Lied]
M: 4/4
L: 1/8
K: C
 | c2Bdc2GF | EFGFEDC2 |
EFGFEDC2
EGFAGcc2 | c2BBc4 |
c2BBc4
c2d2e2d2
c2d2e2d2
c2G2A2G2
c2G2A2G2 | c2
G2cded | c2BBc2
c2 | c2BBc4 |  |  |  |  |  |  |  |  |  |  |  |  |  |  |  |  |  |  |  |  |  |  |  |  |  |  |  |  |  |  |  |  |  |  |  |  |  |  |  |  |  |  |  |  |  |  |  |  |  |  | 
c2BBc4

@@@ Tune index: 7990
